X:1
T:1441
T:None
T:Op. 76, no.5, in D major
T:IV
T:Joseph Haydn
%%score 1 2 3 4
L:1/8
M:2/4
K:D
V:1 treble 
V:2 treble 
V:3 treble 
V:4 bass 
V:1
 c' | d'2 z2 | z3 c' | d'2 z2 | z3 c' | d'c' d'c' | d'2 z2 | z4 | z3 a/g/ | ff/e/ de | %10
 f/g/f/e/ da/g/ | ff/e/ de | f2 d z | z4 | z4 | z4 | z3 c' | d'2 z c' | d'2 z c' | d'c' d'c' | %20
 d'2 z ^a | b2 z ^a | b2 z ^g | a^g ag | a2 z2 | z4 | z3 e/d/ | cc/B/ AB | c/d/c/B/ Ae/d/ | %29
 cc/B/ AB | c2 A z | z4 | z4 | z4 | z3 ^g | a^g ag | a2 z f | gf gf | g2 z ^d | e^d ef | gf gc | %41
 dc de | fe f^a | b^a bc' | d'c' d'^a | b^a b=a | ^g2 z2 | z4 | z4 | z4 | gg gg | gg gg | %52
 ff/^g/ ^aa/b/ | c'c'/d'/ e'^a | bb/c'/ d'd'/e'/ | f'f'/e'/ d'/c'/b/a/ | ^ge/f/ gg/a/ | %57
 bb/c'/ d'^g | aa/b/ c'c'/d'/ | e'e'/d'/ c'/b/a/^g/ | fa/^g/ f/e/d/c/ | Bf/e/ d/c/B/A/ | %62
 ^Gf/e/ d/c/B/A/ | ^GB/A/ G/F/E/D/ | CA,/B,/ CA,/B,/ | CB,/C/ DC/D/ | ED/E/ FD/E/ | FE/F/ ^GF/G/ | %68
 AF/^G/ AF/G/ | A^G/A/ BA/B/ | =c4 | A4 | =f4 | d2 z _B | A2 z A | ^G2 z G | AA,/B,/ CC/D/ | %77
 EE DC | B,B,/C/ DD/E/ | FF ED | CA/B/ cc/d/ | ee dc | BB BB | BB BB | BB BB | BB BB | BB BB | %87
 BB BB | A z c z | d z B z | A2 z2 | z4 | z4 | z4 | z4 | z4 | z3 e/f/ | ^gg/a/ bb/c'/ | %98
 d'2 b^g/a/ | bb/c'/ d'd'/e'/ | f'4 | ^g'4 | a'/^g'/f'/e'/ d'/c'/b/a/ | b/a/b/c'/ d'/e'/f'/^g'/ | %104
 a'/^g'/f'/e'/ d'/c'/b/a/ | b/a/b/c'/ d'/e'/f'/^g'/ | a'/^g'/f'/e'/ d'/c'/b/a/ | %107
 b/a/b/c'/ d'/e'/f'/^g'/ | a' z b' z | c'' z d'' z | e''2 z2 | z4 | f/^g/f/^e/ f/g/f/e/ | f^g af | %114
 ea ce | ed cB | Ae EB | ce E^G | Ae EB | ce E^G | A2 z B | c2 z d | e2 z f | g2 z a | b2 z2 | %125
 z3 c' | d'4- | d'2 _b2 | =f2 d2 | _B2 B2 | =F2 D2 | _B,2 z2 | z4 | z3 =f/_e/ | dd/=c/ _Bc | %135
 d/_e/d/=c/ _B=f/e/ | dd/=c/ _Bc | d2 _B z | z4 | z4 | z4 | z B/=c/ dd/_e/ | =ff/g/ _aB | =c2 z2 | %144
 z4 | z4 | z4 | z c/d/ ee/=f/ | gg/a/ _bc | d2 z a/g/ | =ff/e/ de | =f/g/f/e/ da/g/ | =ff/e/ de | %153
 =f2 d_b | _bb bb | _b/=c'/b/a/ gc' | =c'c' c'c' | =c'/d'/c'/_b/ ad' | d'd' d'd' | %159
 _b/=c'/b/a/ g z | z4 | z3 B | BB BB | =c/B/c/d/ ea | aa aa | ^g/a/g/f/ eB | BB B z | z3 B | %168
 BB B z | z3 G | GG G z | z3 G | GG GG | GG GG | GG GG | FF/^G/ ^AA/B/ | cc/d/ e^A | BB/c/ dd/e/ | %178
 f^g/^a/ bd | ce/f/ ge | df ^Ac | BB,/C/ DC/D/ | ED/E/ FE/F/ | G z g z | f z ^A z | B2 z2 | z4 | %187
 z4 | z4 | dd dd | dd dd | gg gg | gg gc' | d'2 z c' | d'2 z c' | d'2 z c' | d'c' d'c' | d'2 z ^a | %198
 b^a ba | b2 z f | gf gf | g2 z ^d | e^d ed | ee/f/ gg/a/ | bg ed | cA/B/ cc/d/ | ee/f/ gc | %207
 df/g/ ab/c'/ | d'd'/c'/ d'^g | aa/b/ c'c'/d'/ | e'e'/f'/ g'c' | d'c' d'c' | d'c' d'^g | a^g af | %214
 gf g^e | f^e f^d | e^d ec | dc de | fe fg | a^g a^a | bg ed | c2 z2 | z4 | z4 | z4 | =cc cc | %226
 =cc cc | BB/c/ ^dd/e/ | ff/g/ a^d | ee/f/ gg/a/ | bb/a/ g/f/e/d/ | cA/B/ cc/d/ | ee/f/ gc | %233
 dd/e/ ff/g/ | aa/g/ f/e/d/c/ | Bd'/c'/ b/a/g/f/ | eb/a/ g/f/e/d/ | c/d/e/f/ g/a/b/c'/ | %238
 d'e' f'd' | bd' bg | fa ce | dD/E/ FF/G/ | AA GF | EE/F/ GG/A/ | BB AG | Fd/e/ ff/g/ | aa gf | %247
 ee ee | ee ee | ee ee | ee ee | ee ee | ee ee | d z f z | g z e z | d2 z2 | z4 | z4 | z4 | z4 | %260
 z4 | z3 A/B/ | cc/d/ ee/f/ | g2 ec/d/ | ee/f/ gg/a/ | b4 | c'4 | d'/c'/b/a/ g/f/e/d/ | %268
 e/d/e/f/ g/a/b/c'/ | d'/c'/b/a/ g/f/e/d/ | e/d/e/f/ g/a/b/c'/ | d'/c'/b/a/ g/f/e/d/ | %272
 e/d/e/f/ g/a/b/c'/ | d' z e' z | f' z g' z | a'2 z2 | z4 | b/c'/b/^a/ b/c'/b/a/ | bc' d'b | %279
 ad' fa | ag fe | da Ae | fa Ac | da Ae | fa Ac | d2 z e | f2 z c' | d'2 z c' | d'c' d'c' | %289
 d'2 z2 | [DAf]2 z2 | D2 z2 |] %292
V:2
 e | f2 z2 | z3 e | f2 z2 | z3 e | fe fe | f2 z A | AA AA | AA AA | AA AA | AA AA | AA AA | AA AA | %13
 AA AA | AA AA | AA AA | AA Ae | f2 z e | f2 z e | fe fe | f2 z c | d2 z c | d2 z B | cB cB | %24
 c2 z E | EE EE | EE EE | EE EE | EE EE | EE EE | EE EE | EE EE | EE EE | EE EE | EE Ed | cd cd | %36
 c2 z A | BA BA | B2 z A | B=c BB | B3 A | A_B AA | A3 c | dc dg | fg fe | fg ff | e2 z2 | z4 | %48
 z4 | z4 | cc cc | cc cc | [Fc][Fc] [Fc][Fc] | [Fc][Fc] [Fc][Fc] | [FB][FB] [FB][FB] | %55
 [FB][FB] [FB][FB] | [EB][EB] [EB][EB] | [EB][EB] [EB][EB] | [EA][EA] [EA][EA] | %59
 [EA][EA] [EA][EA] | [FA]2 z2 | F2 z2 | E2 z2 | B,2 z B, | CA,/B,/ CA,/B,/ | CB,/C/ DC/D/ | %66
 ED/E/ FD/E/ | FE/F/ ^GF/G/ | AF/^G/ AF/G/ | A^G/A/ BA/B/ | =c4 | A4 | _B4- | B2 z D | =C2 z C | %75
 B,2 z B, | A,2 z A,/B,/ | CC B,A, | ^G,2 z B,/C/ | DD CB, | A,2 z A/B/ | cc BA | EE EE | EE EE | %84
 EE EE | EE EE | ^DD DD | DD DD | C z A z | B z ^G z | AA,/B,/ CC/D/ | EE DC | B,B,/C/ DD/E/ | %93
 FF ED | CA/B/ cc/d/ | ee dc | BB BB | BB BB | BB BB | BB BB | BB BB | BB BB | AA AA | %103
 ^GG/A/ B/c/d/B/ | AA AA | ^G/F/G/A/ B/c/d/B/ | AA AA | ^G/F/G/A/ B/c/d/B/ | A z e z | e z a z | %110
 a2 z2 | z4 | F/^G/F/^E/ F/G/F/E/ | F^G Ad | c2 Ac | cB A^G | A2 z ^G | A2 z D | C2 z ^G | A2 z D | %120
 C2 z E | A2 z B | c2 z d | e2 z f | g2 z2 | z3 g | =f4- | f4- | f4 | d2 _B2 | =F2 D2 | _B,2 z =F | %132
 =FF FF | =FF FF | =FF FF | =FF FF | =FF FF | =FF FF | =FF FF | =FF FF | =FF FF | =FF FF | =FF FF | %143
 _EG GG | GG GG | GG GG | GG GG | GG GG | GG GG | =FA AA | AA AA | AA AA | AA AA | AA AA | AA AA | %155
 GA _BB | _BB BB | A_B =cc | =cc cA | D2 z A | AA AA | _B/A/B/=c/ d^G | ^GG GG | A/^G/A/B/ =c^D | %164
 ^DD DD | E2 z E | EE E z | z3 E | EE E z | z3 C | CC C z | z3 C | CC CC | CC CC | CC CC | CC CC | %176
 [CF][CF] [CF][CF] | [B,F][B,F] [B,F][B,F] | [B,F][B,F] [B,F][B,F] | GG/F/ Ec | dB c^A | %181
 BB,/C/ DC/D/ | ED/E/ FE/F/ | G z e z | d z E z | D2 z2 | z4 | z4 | z4 | GG GG | GG GG | CC CC | %192
 [Ec][Ec] [Ec]a/g/ | f/g/f/e/ d/b/a/g/ | f/g/f/e/ d/b/a/g/ | f/g/f/e/ d/b/a/g/ | %196
 f/b/a/g/ f/b/a/g/ | f/g/f/e/ d/g/f/e/ | d/g/f/e/ d/g/f/e/ | d/e/d/c/ B/e/d/=c/ | %200
 B/e/d/=c/ B/e/d/c/ | B/=c/B/A/ G/c/B/A/ | G/=c/B/A/ G/c/B/A/ | GB BB | BB BB | E3 A/B/ | %206
 cc/d/ eG | Fd/e/ f/d/B/A/ | ^G3 d | ce/d/ cg/f/ | ee/d/ ce | d2 z g | a2 z d | e2 z c | d2 z d | %215
 cd c=c | B=c B_B | A_B AA | A3 d | d4- | d3 B | A2 z2 | z4 | z4 | z4 | FF FF | FF FF | %227
 [B,F][B,F] [B,F][B,F] | [B,F][B,F] [B,F][B,F] | [B,E][B,E] [B,E][B,E] | [B,E][B,E] [B,E][B,E] | %231
 [A,E][A,E] [A,E][A,E] | [A,E][A,E] [A,E][A,E] | [A,D][A,D] [A,D][A,D] | [A,D][A,D] [A,D][A,D] | %235
 [B,D]2 z2 | B2 z2 | [EA]4 | [FA]G FA | B2 ge | df ec | d2 z D/E/ | FF ED | C2 z E/F/ | GG FE | %245
 D2 z d/e/ | ff ed | AA AA | AA AA | AA AA | AA AA | ^GG GG | GG GG | F z d z | e z c z | d2 z2 | %256
 z4 | z4 | z4 | z D/E/ FF/G/ | AA GF | EE EE | EE EE | EE EE | EE EE | EE EE | ee ee | dd dd | %268
 cc/d/ e/f/g/e/ | dd dd | c/B/c/d/ e/f/g/e/ | dd dd | c/B/c/d/ e/f/g/e/ | d z a z | a z d' z | %275
 d'2 z2 | z4 | B/c/B/^A/ B/c/B/A/ | Bc dg | f2 df | fe dc | d2 z c | d2 z G | F2 z c | d2 z G | %285
 F2 z c | d2 z g | f2 z g | fg fg | f2 z2 | [DAf]2 z2 | [DAf]2 z2 |] %292
V:3
 G | F2 z2 | z3 G | F2 z2 | z3 G | FG FG | F2 z D | DD DD | DD DD | DD DD | DD DD | DD DD | DD DD | %13
 DD DD | DD DD | DD DD | DD DG | F2 z G | F2 z G | FG FG | F2 z E | D2 z E | D2 z D | CD CD | %24
 C2 z A, | A,A, A,A, | A,A, A,A, | A,A, A,A, | A,A, A,A, | A,A, A,A, | A,A, A,A, | A,A, A,A, | %32
 A,A, A,A, | A,A, A,A, | A,A, A,B, | CB, CB, | C2 z =C | B,=C B,C | B,2 z F | GA G^D | E^D EG | %41
 FG FC | DC DG | FG Fe | de dc | Be dB | BB BB | BB BB | BB BB | BB BB | BB BB | BB BB | ^AA AA | %53
 ^AA Ac | FF FF | B,B, B,B, | E^G GG | ^GG GB | EE EE | A,A, A,A, | D2 z2 | D2 z2 | B,2 z2 | %63
 E2 z E, | E,A,/B,/ CA,/B,/ | CB,/C/ DC/D/ | ED/E/ FD/E/ | FE/F/ ^GF/G/ | AF/^G/ AF/G/ | %69
 A^G/A/ BA/B/ | =c4 | A4 | [_B,=F]4- | [B,F]2 z =F | E2 z E | D2 z D | C2 z2 | z4 | z4 | z4 | z4 | %81
 z4 | z4 | z4 | z4 | z4 | z4 | EE EE | E z A z | F z D z | C2 z A,/B,/ | CC B,A, | ^G,2 z B,/C/ | %93
 DD CB, | A,2 z A/B/ | cc BA | ^G2 z2 | z4 | z4 | z4 | z4 | EE EE | EE EE | EE EE | EE EE | EE EE | %106
 EE EE | EE EE | E z E z | A z F z | E2 z2 | z4 | A,4- | A,4- | A,4 | E4 | E2 z D | C2 z B, | %118
 C2 z D | C2 z B, | C2 z2 | z4 | z4 | z4 | z4 | z3 E | D4- | D4- | D4- | D2 _B2 | =F2 D2 | %131
 _B,2 z B, | _B,B, B,B, | _B,B, B,B, | _B,B, B,B, | _B,B, B,B, | _B,B, B,B, | _B,B, B,B, | %138
 _B,B, B,B, | _B,B, B,B, | _B,B, B,B, | B,B, B,B, | B,B, B,D | =CC CC | =CC CC | =CC CC | =CC CC | %147
 CC CC | CC CE | DD DD | DD DD | DD DD | DD DD | DD D=F | =FF FF | E3 G | GG GG | =F3 A | AA AA | %159
 _B2 z F | FF FF | G/F/G/A/ _BE | EE EE | =C/D/C/B,/ A,C | =CC CA, | B,2 z2 | z3 B, | B,B, B, z | %168
 z3 B, | B,B, B, z | z3 B, | B,B, B, z | z3 B, | B,B, B,B, | B,B, B,B, | ^A,A, A,A, | ^A,A, A,F | %177
 FF FF | B,B, B,B, | B,B, B,B, | B,D FE | DB,/C/ DC/D/ | ED/E/ FE/F/ | G z E z | F z F z | FF FF | %186
 FF FF | FF FF | FF FF | FF FF | FF FF | ee ee | ec AE | F2 z [EA] | [FA]2 z [EA] | [FA]2 z [EA] | %196
 [FA][EA] [FA][EA] | [FA]2 z [Fc] | [Fd][Fc] [Fd][Fc] | [Fd]2 z A | [DB][DA] [DB][DA] | [DB]2 z F | %202
 [B,G][B,F] [B,G][B,F] | [B,G]2 z E/F/ | G3 ^G | AC/D/ E z | G3 E | F2 z2 | B4 | AC/B,/ A,E/D/ | %210
 CG/F/ EA, | A,2 z e | f2 z B | c2 z ^A | B2 z B | ^AB A=A | ^GA G=G | FG FC | DC DD | D4 | B,3 E | %221
 EE EE | EE EE | EE EE | EE EE | EE EE | EE EE | ^DD DD | ^DD DF | B,B BB | EE EE | AC CC | CC CE | %233
 A,A AA | DD DD | D2 z2 | G2 z2 | c3 e | dc dd | d2 z2 | z2 G2 | F2 z2 | z4 | z4 | z4 | z4 | z4 | %247
 z4 | z4 | z4 | z4 | z4 | AA AA | A z d z | B z G z | FD,/E,/ F,F,/G,/ | A,A, G,F, | %257
 E,E,/F,/ G,G,/A,/ | B,B, A,G, | F,2 z D/E/ | FF ED | A,A, A,A, | A,A, A,A, | A,A, A,A, | %264
 A,A, A,A, | ^G,G, G,G, | G,G, G,A | AA AA | AA AA | AA AA | AA AA | AA AA | AA AA | A z A z | %274
 d z B z | A2 z2 | z4 | D4- | D4- | D4 | A4 | A2 z G | F2 z E | F2 z G | F2 z E | F2 z G | F2 z E | %287
 F2 z E | FE FE | F2 z2 | [D,A,D]2 z2 | [D,A,D]2 z2 |] %292
V:4
 A, | D,2 z2 | z3 A, | D,2 z2 | z3 A, | D,A, D,A, | D,2 z2 | z4 | z4 | z4 | z4 | z4 | z3 A,/G,/ | %13
 F,F,/E,/ D,E, | F,/G,/F,/E,/ D,A,/G,/ | F,F,/E,/ D,E, | F,2 D,A, | D,2 z A, | D,2 z A, | %19
 D,A, D,A, | D,2 z F, | B,,2 z F, | B,,2 z E, | A,,E, A,,E, | A,,2 z2 | z4 | z4 | z4 | z4 | z4 | %30
 z3 E,/D,/ | C,C,/B,,/ A,,B,, | C,/D,/C,/B,,/ A,,E,/D,/ | C,C,/B,,/ A,,B,, | C,2 A,,E, | %35
 A,,E, A,,E, | A,,2 z D, | G,,D, G,,D, | G,,2 z2 | z4 | z4 | z4 | z3 E | DE D^A, | B,^A, B,C | %45
 DC D^D | EE EE | EE EE | EE EE | EE EE | EE EE | EE EE | EE EE | EE EE | DD DD | DD DD | DD DD | %57
 DD DD | CC CC | CC CC | D2 z2 | D,2 z2 | D,2 z2 | D,2 z ^G,, | A,,A,,/B,,/ C,A,,/B,,/ | %65
 C,B,,/C,/ D,C,/D,/ | E,D,/E,/ F,D,/E,/ | F,E,/F,/ ^G,F,/G,/ | A,F,/^G,/ A,F,/G,/ | %69
 A,^G,/A,/ B,A,/B,/ | =C4 | A,4 | D,4- | D,2 z D, | E,2 z E, | E,,2 z E,, | A,,2 z2 | z3 A,, | %78
 E,2 z2 | z3 E, | A,2 z2 | z4 | z3 E,,/F,,/ | ^G,,G,,/A,,/ B,,B,,/C,/ | D,2 B,,^G,,/A,,/ | %85
 B,,B,,/C,/ D,D,/E,/ | F,4 | ^G,4 | A,A, F,F, | D,D, E,E, | A,,2 z2 | z3 A,, | E,,2 z2 | z3 E,, | %94
 A,,2 z2 | z2 A,2 | EE EE | EE EE | EE EE | EE EE | ^DD DD | DD DD | CC CC | DD DD | CC CC | %105
 DD DD | CC CC | DD DD | C z ^G, z | A, z F, z | C,2 z2 | z4 | D,4- | D,4 | E,4 | E,,4 | %116
 A,,2 z E, | A,,2 z E, | A,,2 z E, | A,,2 z E, | A,,2 z2 | z4 | z4 | z4 | z4 | z3 A,, | _B,,4- | %127
 B,,4- | B,,4- | B,,2 _B,2 | =F,2 D,2 | _B,,2 z2 | z4 | z4 | z4 | z4 | z4 | z3 =F,/_E,/ | %138
 D,D,/=C,/ _B,,C, | D,/_E,/D,/=C,/ _B,,=F,/E,/ | D,D,/=C,/ _B,,B,,/_A,,/ | G,,4- | G,,4 | %143
 =C,2 z G,/=F,/ | _E,E,/D,/ =C,D, | _E,/=F,/E,/D,/ =C,G,/F,/ | _E,E,/D,/ =C,C,/_B,,/ | A,,4- | %148
 A,,4 | D,2 z2 | z4 | z4 | z4 | z3 D | DD DD | E3 E | EE EE | =F3 ^F | FF FF | G2 z D | DD DD | %161
 _B,/=C/B,/A,/ G, z | z4 | z3 =F, | =F,F, F,F, | E,2 z2 | z3 E, | E,E, E, z | z3 E, | E,E, E, z | %170
 z3 E, | E,E, E, z | z3 E, | E,E, E,E, | E,E, E,E, | E,E, E,E, | E,E, E,E, | D,D, D,D, | %178
 D,D, D,D, | E,E, E,E, | F,F, F,F, | B,,B,,/C,/ D,C,/D,/ | E,D,/E,/ F,E,/F,/ | G, z E, z | %184
 F, z F, z | B,B, B,B, | B,B, B,B, | B,B, B,B, | B,B, B,B, | B,B, B,B, | B,B, B,B, | A,A, A,A, | %192
 A,,A,, A,,A,, | D,,2 z A, | D2 z A, | D2 z A, | DA, DA, | D2 z F, | B,F, B,F, | B,2 z D, | %200
 G,D, G,D, | G,2 z B,, | E,B,, E,B,, | E,E, E,E, | E,E, G,^G, | A,A, A,A, | A,A, A,A, | %207
 A,,A, A,A, | A,A, A,A, | A,,A, A,A, | A,A, A,G, | F,2 z2 | z4 | z4 | z4 | z4 | z4 | z4 | z3 B, | %219
 F,^E, F,F, | G,2 z ^G, | A,A, A,A, | A,A, A,A, | A,A, A,A, | A,A, A,A, | A,A, A,A, | A,A, A,A, | %227
 A,A, A,A, | A,A, A,A, | G,G, G,G, | G,G, G,G, | G,G, G,G, | G,G, G,G, | F,F, F,F, | F,F, F,F, | %235
 G,2 z2 | G,2 z2 | G,4 | F,E, D,F, | G,4 | A,2 A,,2 | D,2 z2 | z3 D, | A,2 z2 | z3 A,, | D,2 z2 | %246
 z4 | z3 A,,/B,,/ | C,C,/D,/ E,E,/F,/ | G,2 E,C,/D,/ | E,E,/F,/ G,G,/A,/ | B,4 | C4 | DD B,B, | %254
 G,G, A,A, | D,2 z D,/E,/ | F,F, E,D, | A,,2 z E,/F,/ | G,G, F,E, | D,2 z2 | z4 | z4 | z4 | z4 | %264
 z4 | z4 | A,,3 G, | F,F, F,F, | G,G, G,G, | F,F, F,F, | G,G, G,G, | F,F, F,F, | G,G, G,G, | %273
 F, z C, z | D, z B,, z | F,,2 z2 | z4 | G,4- | G,4 | A,4 | A,,4 | D,2 z A, | D,2 z A, | D,2 z A, | %284
 D,2 z A, | D,2 z A, | D,2 z A, | D,2 z A,, | D,,A,, D,,A,, | D,,2 z2 | D,,2 z2 | D,,2 z2 |] %292

